X: 3627
T:Old as the Hills
R:Jig
C:Trad
M:6/8
L:1/8
K:A
Z:From O'Neills.
L:1/8
a|ABA cBA|d2d fga|ABA cBA|dBG Bcd|!
ecA Ace|d2d fga|ece dBG|1 Ace a2:|e!
|:c2e ecA|Aca ecA|c2e ecA|Bcd dcB|!
c2e ecA|Aca fga|ece dBG|Ace a2:|!
